assets/images/trees.svg

<svg height="336" viewBox="0 0 249 336" width="249" xmlns="http://www.w3.org/2000/svg" xmlns:xlink="http://www.w3.org/1999/xlink"><mask id="a" fill="#fff"><path d="m0 0h251v336h-251z" fill="none"/></mask><path d="m184.397676 0 15.203805 41.0509185-5.155583-1.3957228 12.41767 43.5269286-7.535144-4.3211494 12.884166 45.3720681-7.262084-4.32115 14.750715 47.532643-9.328459-4.321149 18.956698 52.934079-12.516711-6.481724 23.214755 57.255228-12.556694-4.321149 22.184934 46.452355-16.712205-8.642299 26.340444 54.014367-17.947958-7.562012 29.663975 71.63031-.057189.000403c-1.226922.008648-22.006491.155103-44.064768.310571-13.68552.096457-27.863251.196382-38.169026.269018-23.66119.166765-71.709017-.915558-71.709017-.915558l29.3047-50.541411-20.871633 13.400204 21.087797-40.932299c-1.416155.007863-2.734336.00911-3.871726.001069-3.21219-.022709-7.631223-.053951-11.89684-.084108-2.882987-.020382-5.695894-.040269-8.018765-.056691-6.724949.098764-13.927383.172752-18.98497.137214-5.3536499-.037618-12.7187048-.089369-19.8280658-.139324-2.5752262-.018095-5.1169026-.035954-7.5172772-.052821-.2571662.002039-.5148954.00384-.7728787.005644-9.4199034.065839-19.1786012.134045-26.2721868.183625-16.2862733.11383-49.3581545-.624939-49.3581545-.624939l20.1707677-34.498434-14.36618885 9.146679 20.54002875-39.534796-11.6174304 5.16166 18.1304359-36.868995-9.2941295 3.686899 11.5883546-29.495195-7.1702014 2.949519 13.7699107-39.081134-7.8790398 2.21214 10.1026817-33.919476-7.1572463 4.42428 9.4167304-39.818515-4.9985772 2.21214 5.1865276-30.2325755-4.4501687 2.2121396 4.4181531-33.9194751 10.4649565 28.020436-3.5486483-.9526891 8.5472279 29.7105051-5.1865276-2.94952 8.868322 30.969956-4.9985773-2.94952 10.1530893 32.444716-6.4208874-2.94952 13.0481172 36.131615-8.6153987-4.424279 14.6597181 35.8543 9.1326692-25.424437-4.8459528 2.237922 7.6627089-24.617144-3.7725112 2.237922 6.6930732-23.498183-3.9143605 2.237922 6.4507382-22.542586-2.6782253.722845 7.8980803-21.260261 3.334455 25.736105-3.358618-1.678441 3.914361 22.938702-3.772511-1.678442 7.106966 30.21195-5.401695-3.356883 7.624665 25.736105-5.946445-1.678442 10.392386 29.65247-5.411473-2.237923 8.745928 22.379222-7.014438-2.797402 11.520199 23.551979 6.167533-15.255319-3.901313 2.026505 5.908582-16.549795-2.907572 1.351003 4.597625-14.861041-2.263507 1.351004 4.015844-14.185539-2.348616 1.351004 3.870443-13.608658-1.606935.436371 4.738848-12.834535 2.000673 15.536543-2.015171-1.013253 2.348617 13.847788-2.263507-1.013253 4.26418 18.238551-3.241017-2.026506 4.574799 15.536543-3.567867-1.013253 5.159361 14.80984 16.816652-43.159501-10.417085 4.32115 20.005342-57.255229-11.446907 3.240862 14.677481-49.693217-10.398264 6.481724 13.68091-58.3355154-7.262083 3.2408619 7.535143-44.2917804-6.465339 3.240862zm-55.535922 302.894759-.968754.501241.373.722zm35.874778-26.341203-13.470532 5.387444 1.06307 3.052959-3.246884-1.351003 5.247557 13.510037-4.208662-1.688755 2.691919 5.537762zm-43.619255 13.731128 5.113723 9.895316 2.988-6.276zm9.450263.788792-1.89354.652524.802 1.639zm-49.28054-31.322476-.948.325 1.385 2.818 1.123-2.343zm7.8622212-28.211773-5.2402212 2.704773.7722692 1.888834-8.6429192-2.94952 6.74565 14.006686z" fill="#00121d" fill-rule="evenodd" mask="url(#a)" transform="translate(-2)"/></svg>

<?xml version="1.0" encoding="UTF-8"?>
<svg width="249px" height="336px" viewBox="0 0 249 336" version="1.1" xmlns="http://www.w3.org/2000/svg" xmlns:xlink="http://www.w3.org/1999/xlink">
    <!-- Generator: Sketch 60.1 (88133) - https://sketch.com -->
    <title>Rectangle</title>
    <desc>Created with Sketch.</desc>
    <defs>
        <rect id="path-1" x="0" y="0" width="251" height="336"></rect>
    </defs>
    <g id="Page-1" stroke="none" stroke-width="1" fill="none" fill-rule="evenodd">
        <g id="Artboard" transform="translate(-656.000000, -1285.000000)">
            <g id="Group-7" transform="translate(-4.000000, 1162.000000)">
                <g id="Rectangle" transform="translate(658.000000, 123.000000)">
                    <mask id="mask-2" fill="white">
                        <use xlink:href="#path-1"></use>
                    </mask>
                    <g></g>
                    <path d="M184.397676,0 L199.601481,41.0509185 L194.445898,39.6551957 L206.863568,83.1821243 L199.328424,78.8609749 L212.21259,124.233043 L204.950506,119.911893 L219.701221,167.444536 L210.372762,163.123387 L229.32946,216.057466 L216.812749,209.575742 L240.027504,266.83097 L227.47081,262.509821 L249.655744,308.962176 L232.943539,300.319877 L259.283983,354.334244 L241.336025,346.772232 L271,418.402542 L270.942811,418.402945 C269.715889,418.411593 248.93632,418.558048 226.878043,418.713516 C213.192523,418.809973 199.014792,418.909898 188.709017,418.982534 C165.047827,419.149299 117,418.066976 117,418.066976 L146.3047,367.525565 L125.433067,380.925769 L146.520864,339.99347 C145.104709,340.001333 143.786528,340.00258 142.649138,339.994539 C139.436948,339.97183 135.017915,339.940588 130.752298,339.910431 C127.869311,339.890049 125.056404,339.870162 122.733533,339.85374 C116.008584,339.952504 108.80615,340.026492 103.748563,339.990954 C98.3949131,339.953336 91.0298582,339.901585 83.9204972,339.85163 C81.345271,339.833535 78.8035946,339.815676 76.40322,339.798809 C76.1460538,339.800848 75.8883246,339.802649 75.6303413,339.804453 C66.2104379,339.870292 56.4517401,339.938498 49.3581545,339.988078 C33.0718812,340.101908 0,339.363139 0,339.363139 L20.1707677,304.864705 L5.80457885,314.011384 L26.3446076,274.476588 L14.7271772,279.638248 L32.8576131,242.769253 L23.5634836,246.456152 L35.1518382,216.960957 L27.9816368,219.910476 L41.7515475,180.829342 L33.8725077,183.041482 L43.9751894,149.122006 L36.8179431,153.546286 L46.2346735,113.727771 L41.2360963,115.939911 L46.4226239,85.7073355 L41.9724552,87.9194751 L46.3906083,54 L56.8555648,82.020436 L53.3069165,81.0677469 L61.8541444,110.778252 L56.6676168,107.828732 L65.5359388,138.798688 L60.5373615,135.849168 L70.6904508,168.293884 L64.2695634,165.344364 L77.3176806,201.475979 L68.7022819,197.0517 L83.362,232.906 L92.4946692,207.481563 L87.6487164,209.719485 L95.3114253,185.102341 L91.5389141,187.340263 L98.2319873,163.84208 L94.3176268,166.080002 L100.768365,143.537416 L98.0901397,144.260261 L105.98822,123 L109.322675,148.736105 L105.964057,147.057664 L109.878418,169.996366 L106.105907,168.317924 L113.212873,198.529874 L107.811178,195.172991 L115.435843,220.909096 L109.489398,219.230654 L119.881784,248.883124 L114.470311,246.645201 L123.216239,269.024423 L116.201801,266.227021 L127.722,289.779 L133.889533,274.523681 L129.98822,276.550186 L135.896802,260.000391 L132.98923,261.351394 L137.586855,246.490353 L135.323348,247.841357 L139.339192,233.655818 L136.990576,235.006822 L140.861019,221.398164 L139.254084,221.834535 L143.992932,209 L145.993605,224.536543 L143.978434,223.52329 L146.327051,237.371078 L144.063544,236.357825 L148.327724,254.596376 L145.086707,252.56987 L149.661506,268.106413 L146.093639,267.09316 L151.253,281.903 L168.069652,238.743499 L157.652567,243.064649 L177.657909,185.80942 L166.211002,189.050282 L180.888483,139.357065 L170.490219,145.838789 L184.171129,87.5032736 L176.909046,90.7441355 L184.444189,46.4523551 L177.97885,49.6932171 L184.397676,0 Z M128.861754,302.894759 L127.893,303.396 L128.266,304.118 L128.861754,302.894759 Z M164.736532,276.553556 L151.266,281.941 L152.32907,284.993959 L149.082186,283.642956 L154.329743,297.152993 L150.121081,295.464238 L152.813,301.002 L164.736532,276.553556 Z M121.117277,290.284684 L126.231,300.18 L129.219,293.904 L121.117277,290.284684 Z M130.56754,291.073476 L128.674,291.726 L129.476,293.365 L130.56754,291.073476 Z M81.287,259.751 L80.339,260.076 L81.724,262.894 L82.847,260.551 L81.287,259.751 Z M89.1492212,231.539227 L83.909,234.244 L84.6812692,236.132834 L76.03835,233.183314 L82.784,247.19 L89.1492212,231.539227 Z" id="Trees" fill="#00121D" mask="url(#mask-2)"></path>
                </g>
            </g>
        </g>
    </g>
</svg>
